public/assets/valentines-day/confetti-hearts.svg

<?xml version="1.0" encoding="UTF-8" standalone="no"?>
<svg
   width="300.39114"
   height="245.31621"
   viewBox="0 0 300.39114 245.31621"
   version="1.1"
   id="svg80"
   xmlns="http://www.w3.org/2000/svg"
   xmlns:svg="http://www.w3.org/2000/svg">
  <defs
     id="defs84" />
  <!-- Center large heart (baby pink) -->
  <g
     id="g10"
     transform="translate(-49.868939,-82.633253)">
    <path
       d="m 200,220 c 0,0 -30,-20 -30,-40 0,-15 8,-22 16,-22 7,0 12,4 14,10 2,-6 7,-10 14,-10 8,0 16,7 16,22 0,20 -30,40 -30,40 z"
       fill="#ffffff"
       id="path2" />
    <path
       d="m 200,215 c 0,0 -27,-18 -27,-35 0,-13 6,-19 13,-19 6,0 11,4 14,9 3,-5 8,-9 14,-9 7,0 13,6 13,19 0,17 -27,35 -27,35 z"
       fill="none"
       stroke="#8b6f47"
       stroke-width="4"
       id="path4" />
    <path
       d="m 200,212 c 0,0 -24,-16 -24,-32 0,-11 5,-16 11,-16 5,0 10,3 13,7 3,-4 8,-7 13,-7 6,0 11,5 11,16 0,16 -24,32 -24,32 z"
       fill="#ffd4e5"
       id="path6" />
    <ellipse
       cx="192"
       cy="175"
       rx="8"
       ry="5"
       fill="#ffffff"
       opacity="0.5"
       id="ellipse8" />
  </g>
  <!-- Confetti hearts scattered around -->
  <!-- Top left hearts -->
  <g
     transform="rotate(-15,-238.76541,248.07947)"
     id="g16">
    <path
       d="m 100,110 c 0,0 -12,-8 -12,-16 0,-6 3,-9 7,-9 3,0 5,2 5,4 0,-2 2,-4 5,-4 4,0 7,3 7,9 0,8 -12,16 -12,16 z"
       fill="#ffdab9"
       id="path12" />
    <path
       d="m 100,110 c 0,0 -12,-8 -12,-16 0,-6 3,-9 7,-9 3,0 5,2 5,4 0,-2 2,-4 5,-4 4,0 7,3 7,9 0,8 -12,16 -12,16 z"
       fill="none"
       stroke="#8b6f47"
       stroke-width="2"
       id="path14" />
  </g>
  <g
     transform="rotate(20,289.38376,-32.727031)"
     id="g22">
    <path
       d="m 80,158 c 0,0 -8,-5 -8,-10 0,-4 2,-6 4,-6 2,0 3,1 4,3 1,-2 2,-3 4,-3 2,0 4,2 4,6 0,5 -8,10 -8,10 z"
       fill="#d4e5ff"
       id="path18" />
    <path
       d="m 80,158 c 0,0 -8,-5 -8,-10 0,-4 2,-6 4,-6 2,0 3,1 4,3 1,-2 2,-3 4,-3 2,0 4,2 4,6 0,5 -8,10 -8,10 z"
       fill="none"
       stroke="#8b6f47"
       stroke-width="2"
       id="path20" />
  </g>
  <!-- Top right hearts -->
  <g
     transform="rotate(25,461.43279,-53.788751)"
     id="g28">
    <path
       d="m 300,110 c 0,0 -12,-8 -12,-16 0,-6 3,-9 7,-9 3,0 5,2 5,4 0,-2 2,-4 5,-4 4,0 7,3 7,9 0,8 -12,16 -12,16 z"
       fill="#e6d4ff"
       id="path24" />
    <path
       d="m 300,110 c 0,0 -12,-8 -12,-16 0,-6 3,-9 7,-9 3,0 5,2 5,4 0,-2 2,-4 5,-4 4,0 7,3 7,9 0,8 -12,16 -12,16 z"
       fill="none"
       stroke="#8b6f47"
       stroke-width="2"
       id="path26" />
  </g>
  <g
     transform="rotate(-10,-177.18567,403.68567)"
     id="g34">
    <path
       d="m 320,168 c 0,0 -8,-5 -8,-10 0,-4 2,-6 4,-6 2,0 3,1 4,3 1,-2 2,-3 4,-3 2,0 4,2 4,6 0,5 -8,10 -8,10 z"
       fill="#ffd4e5"
       id="path30" />
    <path
       d="m 320,168 c 0,0 -8,-5 -8,-10 0,-4 2,-6 4,-6 2,0 3,1 4,3 1,-2 2,-3 4,-3 2,0 4,2 4,6 0,5 -8,10 -8,10 z"
       fill="none"
       stroke="#8b6f47"
       stroke-width="2"
       id="path32" />
  </g>
  <!-- Left side hearts -->
  <g
     transform="rotate(-30,-119.13022,251.74008)"
     id="g40">
    <path
       d="m 60,208 c 0,0 -8,-5 -8,-10 0,-4 2,-6 4,-6 2,0 3,1 4,3 1,-2 2,-3 4,-3 2,0 4,2 4,6 0,5 -8,10 -8,10 z"
       fill="#ffdab9"
       id="path36" />
    <path
       d="m 60,208 c 0,0 -8,-5 -8,-10 0,-4 2,-6 4,-6 2,0 3,1 4,3 1,-2 2,-3 4,-3 2,0 4,2 4,6 0,5 -8,10 -8,10 z"
       fill="none"
       stroke="#8b6f47"
       stroke-width="2"
       id="path38" />
  </g>
  <!-- Right side hearts -->
  <g
     transform="rotate(35,446.10513,99.601339)"
     id="g46">
    <path
       d="m 340,228 c 0,0 -8,-5 -8,-10 0,-4 2,-6 4,-6 2,0 3,1 4,3 1,-2 2,-3 4,-3 2,0 4,2 4,6 0,5 -8,10 -8,10 z"
       fill="#d4e5ff"
       id="path42" />
    <path
       d="m 340,228 c 0,0 -8,-5 -8,-10 0,-4 2,-6 4,-6 2,0 3,1 4,3 1,-2 2,-3 4,-3 2,0 4,2 4,6 0,5 -8,10 -8,10 z"
       fill="none"
       stroke="#8b6f47"
       stroke-width="2"
       id="path44" />
  </g>
  <!-- Bottom left hearts -->
  <g
     transform="rotate(15,388.89647,69.287272)"
     id="g52">
    <path
       d="m 100,310 c 0,0 -12,-8 -12,-16 0,-6 3,-9 7,-9 3,0 5,2 5,4 0,-2 2,-4 5,-4 4,0 7,3 7,9 0,8 -12,16 -12,16 z"
       fill="#e6d4ff"
       id="path48" />
    <path
       d="m 100,310 c 0,0 -12,-8 -12,-16 0,-6 3,-9 7,-9 3,0 5,2 5,4 0,-2 2,-4 5,-4 4,0 7,3 7,9 0,8 -12,16 -12,16 z"
       fill="none"
       stroke="#8b6f47"
       stroke-width="2"
       id="path50" />
  </g>
  <g
     transform="rotate(-25,-131.30173,351.1555)"
     id="g58">
    <path
       d="m 80,288 c 0,0 -8,-5 -8,-10 0,-4 2,-6 4,-6 2,0 3,1 4,3 1,-2 2,-3 4,-3 2,0 4,2 4,6 0,5 -8,10 -8,10 z"
       fill="#ffd4e5"
       id="path54" />
    <path
       d="m 80,288 c 0,0 -8,-5 -8,-10 0,-4 2,-6 4,-6 2,0 3,1 4,3 1,-2 2,-3 4,-3 2,0 4,2 4,6 0,5 -8,10 -8,10 z"
       fill="none"
       stroke="#8b6f47"
       stroke-width="2"
       id="path56" />
  </g>
  <!-- Bottom right hearts -->
  <g
     transform="rotate(-20,40.747297,400.09378)"
     id="g64">
    <path
       d="m 300,310 c 0,0 -12,-8 -12,-16 0,-6 3,-9 7,-9 3,0 5,2 5,4 0,-2 2,-4 5,-4 4,0 7,3 7,9 0,8 -12,16 -12,16 z"
       fill="#ffdab9"
       id="path60" />
    <path
       d="m 300,310 c 0,0 -12,-8 -12,-16 0,-6 3,-9 7,-9 3,0 5,2 5,4 0,-2 2,-4 5,-4 4,0 7,3 7,9 0,8 -12,16 -12,16 z"
       fill="none"
       stroke="#8b6f47"
       stroke-width="2"
       id="path62" />
  </g>
  <g
     transform="rotate(30,449.26128,185.62667)"
     id="g70">
    <path
       d="m 320,328 c 0,0 -8,-5 -8,-10 0,-4 2,-6 4,-6 2,0 3,1 4,3 1,-2 2,-3 4,-3 2,0 4,2 4,6 0,5 -8,10 -8,10 z"
       fill="#d4e5ff"
       id="path66" />
    <path
       d="m 320,328 c 0,0 -8,-5 -8,-10 0,-4 2,-6 4,-6 2,0 3,1 4,3 1,-2 2,-3 4,-3 2,0 4,2 4,6 0,5 -8,10 -8,10 z"
       fill="none"
       stroke="#8b6f47"
       stroke-width="2"
       id="path68" />
  </g>
  <!-- Tiny sparkles between hearts -->
  <circle
     cx="100.13106"
     cy="47.366745"
     r="2"
     fill="#ffffff"
     opacity="0.8"
     id="circle72" />
  <circle
     cx="200.13106"
     cy="57.366745"
     r="2"
     fill="#fff4d4"
     opacity="0.8"
     id="circle74" />
  <circle
     cx="80.131058"
     cy="167.36674"
     r="2"
     fill="#ffffff"
     opacity="0.8"
     id="circle76" />
  <circle
     cx="220.13106"
     cy="177.36674"
     r="2"
     fill="#fff4d4"
     opacity="0.8"
     id="circle78" />
</svg>

<svg width="400" height="400" viewBox="0 0 400 400" xmlns="http://www.w3.org/2000/svg">
  <!-- Center large heart (baby pink) -->
  <g>
    <path d="M 200 220 C 200 220 170 200 170 180 C 170 165 178 158 186 158 C 193 158 198 162 200 168 C 202 162 207 158 214 158 C 222 158 230 165 230 180 C 230 200 200 220 200 220 Z" fill="#FFFFFF"/>
    <path d="M 200 215 C 200 215 173 197 173 180 C 173 167 179 161 186 161 C 192 161 197 165 200 170 C 203 165 208 161 214 161 C 221 161 227 167 227 180 C 227 197 200 215 200 215 Z" fill="none" stroke="#8B6F47" stroke-width="4"/>
    <path d="M 200 212 C 200 212 176 196 176 180 C 176 169 181 164 187 164 C 192 164 197 167 200 171 C 203 167 208 164 213 164 C 219 164 224 169 224 180 C 224 196 200 212 200 212 Z" fill="#FFD4E5"/>
    <ellipse cx="192" cy="175" rx="8" ry="5" fill="#FFFFFF" opacity="0.5"/>
  </g>
  
  <!-- Confetti hearts scattered around -->
  <!-- Top left hearts -->
  <g transform="rotate(-15 100 100)">
    <path d="M 100 110 C 100 110 88 102 88 94 C 88 88 91 85 95 85 C 98 85 100 87 100 89 C 100 87 102 85 105 85 C 109 85 112 88 112 94 C 112 102 100 110 100 110 Z" fill="#FFDAB9"/>
    <path d="M 100 110 C 100 110 88 102 88 94 C 88 88 91 85 95 85 C 98 85 100 87 100 89 C 100 87 102 85 105 85 C 109 85 112 88 112 94 C 112 102 100 110 100 110 Z" fill="none" stroke="#8B6F47" stroke-width="2"/>
  </g>
  
  <g transform="rotate(20 80 150)">
    <path d="M 80 158 C 80 158 72 153 72 148 C 72 144 74 142 76 142 C 78 142 79 143 80 145 C 81 143 82 142 84 142 C 86 142 88 144 88 148 C 88 153 80 158 80 158 Z" fill="#D4E5FF"/>
    <path d="M 80 158 C 80 158 72 153 72 148 C 72 144 74 142 76 142 C 78 142 79 143 80 145 C 81 143 82 142 84 142 C 86 142 88 144 88 148 C 88 153 80 158 80 158 Z" fill="none" stroke="#8B6F47" stroke-width="2"/>
  </g>
  
  <!-- Top right hearts -->
  <g transform="rotate(25 300 100)">
    <path d="M 300 110 C 300 110 288 102 288 94 C 288 88 291 85 295 85 C 298 85 300 87 300 89 C 300 87 302 85 305 85 C 309 85 312 88 312 94 C 312 102 300 110 300 110 Z" fill="#E6D4FF"/>
    <path d="M 300 110 C 300 110 288 102 288 94 C 288 88 291 85 295 85 C 298 85 300 87 300 89 C 300 87 302 85 305 85 C 309 85 312 88 312 94 C 312 102 300 110 300 110 Z" fill="none" stroke="#8B6F47" stroke-width="2"/>
  </g>
  
  <g transform="rotate(-10 320 160)">
    <path d="M 320 168 C 320 168 312 163 312 158 C 312 154 314 152 316 152 C 318 152 319 153 320 155 C 321 153 322 152 324 152 C 326 152 328 154 328 158 C 328 163 320 168 320 168 Z" fill="#FFD4E5"/>
    <path d="M 320 168 C 320 168 312 163 312 158 C 312 154 314 152 316 152 C 318 152 319 153 320 155 C 321 153 322 152 324 152 C 326 152 328 154 328 158 C 328 163 320 168 320 168 Z" fill="none" stroke="#8B6F47" stroke-width="2"/>
  </g>
  
  <!-- Left side hearts -->
  <g transform="rotate(-30 60 200)">
    <path d="M 60 208 C 60 208 52 203 52 198 C 52 194 54 192 56 192 C 58 192 59 193 60 195 C 61 193 62 192 64 192 C 66 192 68 194 68 198 C 68 203 60 208 60 208 Z" fill="#FFDAB9"/>
    <path d="M 60 208 C 60 208 52 203 52 198 C 52 194 54 192 56 192 C 58 192 59 193 60 195 C 61 193 62 192 64 192 C 66 192 68 194 68 198 C 68 203 60 208 60 208 Z" fill="none" stroke="#8B6F47" stroke-width="2"/>
  </g>
  
  <!-- Right side hearts -->
  <g transform="rotate(35 340 220)">
    <path d="M 340 228 C 340 228 332 223 332 218 C 332 214 334 212 336 212 C 338 212 339 213 340 215 C 341 213 342 212 344 212 C 346 212 348 214 348 218 C 348 223 340 228 340 228 Z" fill="#D4E5FF"/>
    <path d="M 340 228 C 340 228 332 223 332 218 C 332 214 334 212 336 212 C 338 212 339 213 340 215 C 341 213 342 212 344 212 C 346 212 348 214 348 218 C 348 223 340 228 340 228 Z" fill="none" stroke="#8B6F47" stroke-width="2"/>
  </g>
  
  <!-- Bottom left hearts -->
  <g transform="rotate(15 100 300)">
    <path d="M 100 310 C 100 310 88 302 88 294 C 88 288 91 285 95 285 C 98 285 100 287 100 289 C 100 287 102 285 105 285 C 109 285 112 288 112 294 C 112 302 100 310 100 310 Z" fill="#E6D4FF"/>
    <path d="M 100 310 C 100 310 88 302 88 294 C 88 288 91 285 95 285 C 98 285 100 287 100 289 C 100 287 102 285 105 285 C 109 285 112 288 112 294 C 112 302 100 310 100 310 Z" fill="none" stroke="#8B6F47" stroke-width="2"/>
  </g>
  
  <g transform="rotate(-25 80 280)">
    <path d="M 80 288 C 80 288 72 283 72 278 C 72 274 74 272 76 272 C 78 272 79 273 80 275 C 81 273 82 272 84 272 C 86 272 88 274 88 278 C 88 283 80 288 80 288 Z" fill="#FFD4E5"/>
    <path d="M 80 288 C 80 288 72 283 72 278 C 72 274 74 272 76 272 C 78 272 79 273 80 275 C 81 273 82 272 84 272 C 86 272 88 274 88 278 C 88 283 80 288 80 288 Z" fill="none" stroke="#8B6F47" stroke-width="2"/>
  </g>
  
  <!-- Bottom right hearts -->
  <g transform="rotate(-20 300 300)">
    <path d="M 300 310 C 300 310 288 302 288 294 C 288 288 291 285 295 285 C 298 285 300 287 300 289 C 300 287 302 285 305 285 C 309 285 312 288 312 294 C 312 302 300 310 300 310 Z" fill="#FFDAB9"/>
    <path d="M 300 310 C 300 310 288 302 288 294 C 288 288 291 285 295 285 C 298 285 300 287 300 289 C 300 287 302 285 305 285 C 309 285 312 288 312 294 C 312 302 300 310 300 310 Z" fill="none" stroke="#8B6F47" stroke-width="2"/>
  </g>
  
  <g transform="rotate(30 320 320)">
    <path d="M 320 328 C 320 328 312 323 312 318 C 312 314 314 312 316 312 C 318 312 319 313 320 315 C 321 313 322 312 324 312 C 326 312 328 314 328 318 C 328 323 320 328 320 328 Z" fill="#D4E5FF"/>
    <path d="M 320 328 C 320 328 312 323 312 318 C 312 314 314 312 316 312 C 318 312 319 313 320 315 C 321 313 322 312 324 312 C 326 312 328 314 328 318 C 328 323 320 328 320 328 Z" fill="none" stroke="#8B6F47" stroke-width="2"/>
  </g>
  
  <!-- Tiny sparkles between hearts -->
  <circle cx="150" cy="130" r="2" fill="#FFFFFF" opacity="0.8"/>
  <circle cx="250" cy="140" r="2" fill="#FFF4D4" opacity="0.8"/>
  <circle cx="130" cy="250" r="2" fill="#FFFFFF" opacity="0.8"/>
  <circle cx="270" cy="260" r="2" fill="#FFF4D4" opacity="0.8"/>
</svg>
